X:1
T:Beautiful Valley
T:Beautiful Valley
T:Dick Lyon
T:John Scotford, 1872
T:Public Domain Courtesy of the Cyber Hymnal™
T:Public Domain Courtesy of the Cyber Hymnal™
T:Public Domain Courtesy of the Cyber Hymnal™
C:Dick Lyon
Z:Public Domain
Z:Courtesy of the Cyber Hymnal™
%%score ( 1 2 ) 3
L:1/8
Q:1/4=110
M:6/8
K:F
V:1 treble 
V:2 treble 
V:3 bass 
V:1
 ([FA]2 [GB]) | [Ac]4 [GB][FA] | [EG]3 F3 | ([Bd]3 [Bd][ce])[df] | [Ac]3 F2 [FG] | %5
w: 1.~There’s~a *|beau- ti- ful|val- ley|brought * * to|view, From the|
w: 2.~This *|beau- ti- ful|val- ley,|clad * * in|green, As the|
w: 3.~This *|beau- ti- ful|vale is|the~home * * of|peace, ’Tis Em-|
w: 4.~’Tis *|here we’ll dwell,|in this|love- * * ly|vale, While our|
 [FA]3 [FA]2 [FA] | [Fc]3 [FA]3 | !fermata![EG]3 [FA]2 [GB] | ([Ac]4 [GB])[FA] | [EG]3 F3 | %10
w: place where my|feet have|trod, With a|crys- * tal|ri- ver|
w: bards we- re|wont to|tell, Is the|loveli- * est|spot that|
w: an- u- el’s|land most|fair, Whe- re|doubts, * and|fears, and|
w: forms a- re|grow- ing|old, A- nd|when * our|mor- tal|
 ([Bd]4 [ce])[df] | [Ac]3 (F2 [FG]) | [FA]3 [FA]2 [FA] | [FA]3 [EG]3 | !fermata!F3 ([CE]2 [CF]) | %15
w: pass- * ing|through, That *|flows from the|throne of|God. On *|
w: eye * hath|seen, Where~the *|meek and the|low- ly|dwell; The *|
w: dis- * cords|cease, For~the *|spir- it of|love is|there; And *|
w: life * shall|fail, And *|in death our|hands we|fold, We’ll *|
 [EG]3 [EG]3 | [EG]3 [EG]2 [EG] | [FA]3 [FA]3 | [FA]3 [FA]2 [FA] | [FB]3 [Ac]3 | [Bd]3 [FG]3 | %21
w: ei- ther|side of this|love- ly|vale Is the|tree of|life so|
w: storms of|an- ger and|pride that|break On the|sides of~the|hills a-|
w: vi- sions|bright of a|love- lier|clime Cheer the|hum- ble|dwell- ers|
w: meek- ly|tre- ad the|low- ly|path, That the|great Re-|deem- er|
 [EG]3 ([FA]2 [GB]) | [Ac]3 [FA]3 | [CF]3 [FA]2 [Ac] | [Bf]3- [Bf]2 [Fd] | [Fd]3- [Fd]2 [Fd] | %26
w: fair, Whose *|leaves and|fruits with the|sun’s * soft|beams * Breathe|
w: bove, When *|fierce winds|w- ar and|mount- * ains|shake, * Come|
w: there, And *|an- gel|voic- e- s|whis- * per,|“come, * O|
w: trod, And *|live with|Him in our|home * a-|bove, * In|
 [Fc]3 [FA]2 [FA] | [EG]3 ([EG]2 [EA]) | F3 ||"^Refrain" ([FA]2 [GB]) | [Ac]4 [GB][FA] | [EG]3 F3 | %32
w: health on the|balm- y *|air.||||
w: not to this|vale of *|love.|O *|beau- ti- ful|val- ley,|
w: come to the|vale most *|fair.”||||
w: that ci- ty|of our *|God.||||
 ([Bd]4 [ce])[df] | [Ac]3 [FA]2 F | [FA]3 [FA]2 [FA] | [Fc]3 [FA]3 | !fermata![EG]3 [FA]2 [GB] | %37
w: |||||
w: love- * ly|val- ley, As|sung by the|seer of|old, And its|
w: |||||
w: |||||
 [Ac]4 [GB][FA] | [EG]3 F3 | ([Bd]4 [ce])[df] | [Ac]3 [FA]2 F | [FA]3 [FA]3 | [FA]3- [FA]2 [EG] | %43
w: ||||||
w: won- der- ful|ci- ty!|love- * ly|ci- ty, With|streets of|bur- * nished|
w: ||||||
w: ||||||
 F3 |] %44
w: |
w: gold.|
w: |
w: |
V:2
 x3 | x6 | x3 F3 | x6 | x3 F2 x | x6 | x6 | x6 | x6 | x3 F3 | x6 | x3 F2 x | x6 | x6 | F3 x3 | x6 | %16
 x6 | x6 | x6 | x6 | x6 | x6 | x6 | x6 | x6 | x6 | x6 | x6 | F3 || x3 | x6 | x3 F3 | x6 | x5 F | %34
 x6 | x6 | x6 | x6 | x3 F3 | x6 | x5 F | x6 | x6 | F3 |] %44
V:3
 ([F,C]2 [F,C]) | [F,C]4 [F,C][F,C] | [B,,B,]3 [F,A,]3 | ([B,,B,]3 [B,,B,][B,,A,])[D,B,] | %4
w: ~ *|~ ~ ~|~ ~|~ * * ~|
 [F,A,]3 [F,A,]2 [F,B,] | [F,C]3 [F,C]2 [F,C] | [A,C]3 [F,C]3 | [C,C]3 [F,C]2 [F,C] | %8
w: ~ ~ ~|~ ~ ~|~ ~|~ ~ ~|
 ([F,C]4 [F,C])[F,B,] | [B,,B,]3 [F,A,]3 | ([B,,B,]4 [B,,B,])[D,B,] | [F,A,]3 ([F,A,]2 [F,B,]) | %12
w: ~ * ~|~ ~|~ * ~|~ ~ *|
 [F,C]3 [F,C]2 [F,C] | [C,C]3 [C,B,]3 | !fermata![F,A,]3 ([C,G,]2 [C,A,]) | [C,C]3 [C,C]3 | %16
w: ~ ~ ~|~ ~|~ ~ *|~ ~|
 [C,C]3 [C,C]2 [C,C] | [F,C]3 [F,C]3 | [F,C]3 [F,C]2 [_E,C] | [D,F,]3 [C,F,]3 | [B,,F,]3 [=B,,D]3 | %21
w: ~ ~ ~|~ ~|~ ~ ~|~ ~|~ ~|
 [C,C]3 ([F,C]2 [F,C]) | [F,C]3 [F,C]3 | [F,A,]3 [F,C]2 [F,F] | [B,,D]3- [B,,D]2 [B,,B,] | %25
w: ~ ~ *|~ ~|~ ~ ~|~ * ~|
 [B,,B,]3- [B,,B,]2 [B,,B,] | [C,A,]3 [C,C]2 [C,C] | [C,C]3 ([C,C]2 [C,B,]) | [F,A,]3 || z3 | %30
w: ~ * ~|~ ~ ~|~ ~ *|~||
 [F,C][F,C][F,C] [F,C]2 [F,C] | [C,B,][C,B,][C,B,] [F,A,]2 [F,A,] | %32
w: beau- ti- ful val- ley,|beau- ti- ful val- ley,|
 [B,,B,]2 [B,,B,] [B,,B,]2 [D,B,] | [F,A,]2 [F,A,] [F,A,][F,A,][F,A,] | [F,C]3 [F,C]2 [F,C] | %35
w: love- ly val- ley,|love- ly val- ley, ~|~ ~ ~|
 [A,C]3 [F,C]3 | !fermata![C,C]3 z3 | [F,C][F,C][F,C] [F,C]2 [F,C] | %38
w: ~ ~|~|won- der- ful ci- ty,|
 [C,B,][C,B,][C,B,] [F,A,]2 [F,A,] | [B,,B,]2 [B,,B,] [B,,B,]2 [D,B,] | %40
w: won- der- ful ci- ty,|love- ly ci- ty,|
 [F,A,]2 [F,A,] [F,C][F,C][F,A,] | [F,C]3 [F,C]3 | [C,C]3- [C,C]2 [C,B,] | [F,A,]3 |] %44
w: love- ly ci- ty *||||

